svgs/light/align-left.svg

<svg xmlns="http://www.w3.org/2000/svg" viewBox="0 0 448 512"><!--! Font Awesome Pro 6.0.0-alpha3 by @fontawesome - https://fontawesome.com License - https://fontawesome.com/license (Commercial License) --><path d="M16 208h416c8.801 0 16-7.199 16-15.1S440.8 176 432 176h-416C7.199 176 0 183.2 0 192S7.199 208 16 208zM16 80h256c8.801 0 16-7.199 16-15.1S280.8 48 272 48h-256C7.199 48 0 55.2 0 64S7.199 80 16 80zM16 336h256c8.801 0 16-7.199 16-15.1S280.8 304 272 304h-256C7.199 304 0 311.2 0 320S7.199 336 16 336zM432 432h-416c-8.801 0-16 7.199-16 16S7.199 464 16 464h416c8.801 0 16-7.199 16-15.1S440.8 432 432 432z"/></svg>

<svg xmlns="http://www.w3.org/2000/svg" viewBox="0 0 448 512"><!-- Font Awesome Pro 6.0.0-alpha2 by @fontawesome - https://fontawesome.com License - https://fontawesome.com/license (Commercial License) --><path d="M16 208H432C440.801 208 448 200.801 448 192S440.801 176 432 176H16C7.199 176 0 183.199 0 192S7.199 208 16 208ZM16 80H272C280.801 80 288 72.801 288 64S280.801 48 272 48H16C7.199 48 0 55.199 0 64S7.199 80 16 80ZM16 336H272C280.801 336 288 328.801 288 320S280.801 304 272 304H16C7.199 304 0 311.199 0 320S7.199 336 16 336ZM432 432H16C7.199 432 0 439.199 0 448S7.199 464 16 464H432C440.801 464 448 456.801 448 448S440.801 432 432 432Z"/></svg>
